src/icons/javascript.svg

<svg width="64" height="64" viewBox="0 0 64 64" fill="none" xmlns="http://www.w3.org/2000/svg">
<path d="M64 0H0V64H64V0Z" fill="#F7DF1E"/>
<path d="M42.992 50.0002C44.2812 52.1051 45.9584 53.6523 48.9247 53.6523C51.4166 53.6523 53.0085 52.4068 53.0085 50.6859C53.0085 48.6237 51.373 47.8933 48.6301 46.6935L47.1266 46.0484C42.7868 44.1996 39.9038 41.8834 39.9038 36.9869C39.9038 32.4764 43.3405 29.0427 48.7114 29.0427C52.5351 29.0427 55.2841 30.3735 57.265 33.858L52.5818 36.8649C51.5507 35.0161 50.4384 34.2877 48.7114 34.2877C46.9498 34.2877 45.8334 35.4051 45.8334 36.8649C45.8334 38.6691 46.9509 39.3995 49.5312 40.517L51.0347 41.1611C56.1445 43.3523 59.0296 45.5862 59.0296 50.6087C59.0296 56.0233 54.7761 58.9896 49.0639 58.9896C43.4786 58.9896 39.8702 56.3281 38.1046 52.8396L42.992 50.0002ZM21.7471 50.5213C22.6918 52.1975 23.5512 53.6147 25.6175 53.6147C27.5934 53.6147 28.8399 52.8416 28.8399 49.8356V29.3861H34.8538V49.9169C34.8538 56.1442 31.2028 58.9785 25.8735 58.9785C21.0583 58.9785 18.2697 56.4865 16.8516 53.4851L21.7471 50.5213Z" fill="black"/>
</svg>

<svg xmlns="http://www.w3.org/2000/svg" fill="none" viewBox="0 0 64 64"><defs/><path fill="#F7DF1E" d="M64 0H0v64h64V0z"/><path fill="#000" d="M43 50c1.28 2.1 2.96 3.65 5.92 3.65 2.5 0 4.09-1.24 4.09-2.96 0-2.07-1.64-2.8-4.38-4l-1.5-.64c-4.34-1.85-7.23-4.17-7.23-9.06 0-4.51 3.44-7.95 8.81-7.95 3.83 0 6.57 1.33 8.55 4.82l-4.68 3c-1.03-1.84-2.14-2.57-3.87-2.57-1.76 0-2.88 1.12-2.88 2.57 0 1.8 1.12 2.54 3.7 3.66l1.5.64c5.11 2.2 8 4.43 8 9.45 0 5.41-4.25 8.38-9.97 8.38-5.58 0-9.19-2.66-10.96-6.15L43 50zm-21.25.52c.94 1.68 1.8 3.1 3.87 3.1 1.97 0 3.22-.78 3.22-3.78V29.39h6.01v20.53c0 6.22-3.65 9.06-8.98 9.06-4.81 0-7.6-2.5-9.02-5.5l4.9-2.96z"/></svg>
